X: 6603
T: Caught Inside
R: reel
M: 4/4
K: Bminor
|:a|bffg efdc|BdcA BFFB|DBEB FBdB|abba fffa|
bffg efdc|BdcA BFFB|DBEB FBdB|abba b3:|
|:a|bfdB aecB|AEAB cAAA|dcde fffa|abba fffa|
bfdB aecB|AEAB cAAA|dcde fffa|abba b3:|

